X:175
T:Neither Here nor There. THO2.175
O:London
M:4/4
L:1/8
Q:1/2=100
B:Thompson's Compleat Coll. of 200 Favourite Country Dances, vol.2,1765
Z:Transcribed and edited by Fynn Titford-Mock, 2007
Z:abc's:JA/VMP 2009
K:A
c4 Bcd2|c6B2|A2c2B2A2|G4E4|A4 GA B2|A4Bcd2|c2e2d2c2|B8:|
|:e4def2|e2a2c2d2|e4def2|e2a2c2d2| e4dcBA|G4E4|A4GAB2|A4B2d2|c2BAB2G2|A8:|

